src/assets/profile_icon.svg

<svg width="29" height="29" viewBox="0 0 29 29" fill="none" xmlns="http://www.w3.org/2000/svg">
<path d="M18.6536 7.50138C18.6536 9.59547 16.9947 11.2931 14.9483 11.2931C12.902 11.2931 11.2431 9.59547 11.2431 7.50138C11.2431 5.4073 12.902 3.70972 14.9483 3.70972C16.9947 3.70972 18.6536 5.4073 18.6536 7.50138Z" stroke="white" stroke-width="2"/>
<path d="M22.0738 20.3348C22.0738 21.5897 21.3794 22.8084 20.0944 23.7475C18.8112 24.6856 16.9944 25.2931 14.9484 25.2931C12.9023 25.2931 11.0856 24.6856 9.80225 23.7475C8.51731 22.8084 7.82288 21.5897 7.82288 20.3348C7.82288 19.0799 8.51731 17.8612 9.80225 16.9221C11.0856 15.9839 12.9023 15.3765 14.9484 15.3765C16.9944 15.3765 18.8112 15.9839 20.0944 16.9221C21.3794 17.8612 22.0738 19.0799 22.0738 20.3348Z" stroke="white" stroke-width="2"/>
</svg>

<svg width="29" height="29" fill="none" xmlns="http://www.w3.org/2000/svg"><path d="M18.654 7.501c0 2.094-1.66 3.792-3.706 3.792-2.046 0-3.705-1.698-3.705-3.792s1.659-3.791 3.705-3.791c2.047 0 3.706 1.697 3.706 3.791ZM22.074 20.335c0 1.255-.695 2.473-1.98 3.412-1.283.939-3.1 1.546-5.146 1.546s-3.862-.607-5.146-1.546c-1.285-.939-1.98-2.157-1.98-3.412s.695-2.474 1.98-3.413c1.284-.938 3.1-1.546 5.146-1.546s3.863.608 5.146 1.546c1.285.94 1.98 2.158 1.98 3.413Z" stroke="#fff" stroke-width="2"/></svg>
